archdroid-icon-theme/Archdroid-Amber/mimetypes/scalable/image-tiff.svg

<?xml version="1.0" encoding="UTF-8" standalone="no"?>
<svg
   xmlns:dc="http://purl.org/dc/elements/1.1/"
   xmlns:cc="http://creativecommons.org/ns#"
   xmlns:rdf="http://www.w3.org/1999/02/22-rdf-syntax-ns#"
   xmlns:svg="http://www.w3.org/2000/svg"
   xmlns="http://www.w3.org/2000/svg"
   xmlns:sodipodi="http://sodipodi.sourceforge.net/DTD/sodipodi-0.dtd"
   xmlns:inkscape="http://www.inkscape.org/namespaces/inkscape"
   fill="#E91E63"
   width="48"
   height="48"
   viewBox="0 0 48 48"
   id="svg2"
   version="1.1"
   inkscape:version="0.91 r13725"
   sodipodi:docname="image-tiff.svg">
  <metadata
     id="metadata10">
    <rdf:RDF>
      <cc:Work
         rdf:about="">
        <dc:format>image/svg+xml</dc:format>
        <dc:type
           rdf:resource="http://purl.org/dc/dcmitype/StillImage" />
        <dc:title></dc:title>
      </cc:Work>
    </rdf:RDF>
  </metadata>
  <defs
     id="defs8" />
  <sodipodi:namedview
     pagecolor="#ffffff"
     bordercolor="#666666"
     borderopacity="1"
     objecttolerance="10"
     gridtolerance="10"
     guidetolerance="10"
     inkscape:pageopacity="0"
     inkscape:pageshadow="2"
     inkscape:window-width="1366"
     inkscape:window-height="713"
     id="namedview6"
     showgrid="false"
     inkscape:zoom="4.9166667"
     inkscape:cx="24.074825"
     inkscape:cy="24.050928"
     inkscape:window-x="0"
     inkscape:window-y="30"
     inkscape:window-maximized="1"
     inkscape:current-layer="svg2"
     inkscape:snap-bbox="true"
     inkscape:bbox-paths="true"
     inkscape:bbox-nodes="true"
     inkscape:snap-bbox-edge-midpoints="true" />
  <path
     d="M 10 6 C 7.79 6 6 7.79 6 10 L 6 38 C 6 40.21 7.79 42 10 42 L 38 42 C 40.21 42 42 40.21 42 38 L 42 10 C 42 7.79 40.21 6 38 6 L 10 6 z M 26.828125 10.222656 C 26.97054 10.222656 27.115234 10.233398 27.261719 10.257812 C 27.408203 10.278158 27.572754 10.308919 27.755859 10.349609 L 27.603516 11.498047 C 27.522135 11.481771 27.431803 11.467285 27.330078 11.455078 C 27.232422 11.442871 27.125651 11.4375 27.011719 11.4375 C 26.690267 11.4375 26.447917 11.527832 26.285156 11.710938 C 26.126465 11.894043 26.046875 12.15625 26.046875 12.498047 L 26.046875 13.267578 L 27.390625 13.267578 L 27.390625 14.367188 L 26.046875 14.367188 L 26.046875 19.871094 L 24.564453 19.871094 L 24.564453 14.367188 L 23.556641 14.367188 L 23.556641 13.267578 L 24.564453 13.267578 L 24.564453 12.498047 C 24.564453 11.769694 24.761556 11.209147 25.15625 10.814453 C 25.555013 10.419759 26.111979 10.222656 26.828125 10.222656 z M 31.222656 10.222656 C 31.365072 10.222656 31.509766 10.233398 31.65625 10.257812 C 31.802734 10.278158 31.967285 10.308919 32.150391 10.349609 L 31.998047 11.498047 C 31.916667 11.481771 31.826335 11.467285 31.724609 11.455078 C 31.626953 11.442871 31.520182 11.4375 31.40625 11.4375 C 31.084798 11.4375 30.842448 11.527832 30.679688 11.710938 C 30.520996 11.894043 30.441406 12.15625 30.441406 12.498047 L 30.441406 13.267578 L 31.785156 13.267578 L 31.785156 14.367188 L 30.441406 14.367188 L 30.441406 19.871094 L 28.958984 19.871094 L 28.958984 14.367188 L 27.951172 14.367188 L 27.951172 13.267578 L 28.958984 13.267578 L 28.958984 12.498047 C 28.958984 11.769694 29.156087 11.209147 29.550781 10.814453 C 29.949544 10.419759 30.50651 10.222656 31.222656 10.222656 z M 20.933594 10.349609 L 22.416016 10.349609 L 22.416016 11.650391 L 20.933594 11.650391 L 20.933594 10.349609 z M 16.855469 11.662109 L 18.332031 11.662109 L 18.332031 13.267578 L 19.517578 13.267578 L 19.517578 14.367188 L 18.332031 14.367188 L 18.332031 18.015625 C 18.332031 18.288249 18.391764 18.483561 18.509766 18.601562 C 18.627767 18.715495 18.785156 18.773438 18.980469 18.773438 C 19.061849 18.773438 19.141439 18.766113 19.21875 18.753906 C 19.296061 18.73763 19.368327 18.717773 19.4375 18.693359 L 19.595703 19.78125 C 19.469564 19.850423 19.319499 19.902832 19.144531 19.939453 C 18.969564 19.980143 18.788737 20 18.601562 20 C 18.056315 20 17.629557 19.84082 17.320312 19.523438 C 17.011068 19.201986 16.855469 18.699219 16.855469 18.015625 L 16.855469 14.367188 L 15.849609 14.367188 L 15.849609 13.267578 L 16.855469 13.267578 L 16.855469 11.662109 z M 20.933594 13.267578 L 22.416016 13.267578 L 22.416016 19.871094 L 20.933594 19.871094 L 20.933594 13.267578 z M 29 24 L 38 36 L 10 36 L 17 27 L 22 33.009766 L 29 24 z "
     id="path4163" />
</svg>

<svg xmlns="http://www.w3.org/2000/svg" fill="#E91E63" viewBox="0 0 48 48"><path d="m10 6c-2.21 0-4 1.79-4 4v28c0 2.21 1.79 4 4 4h28c2.21 0 4-1.79 4-4v-28c0-2.21-1.79-4-4-4h-28m16.828 4.223c.142 0 .287.011.434.035.146.02.311.051.494.092l-.152 1.148c-.081-.016-.172-.031-.273-.043-.098-.012-.204-.018-.318-.018-.321 0-.564.09-.727.273-.159.183-.238.445-.238.787v.77h1.344v1.1h-1.344v5.504h-1.482v-5.504h-1.01v-1.1h1.01v-.77c0-.728.197-1.289.592-1.684.399-.395.956-.592 1.672-.592m4.395 0c.142 0 .287.011.434.035.146.02.311.051.494.092l-.152 1.148c-.081-.016-.172-.031-.273-.043-.098-.012-.204-.018-.318-.018-.321 0-.564.09-.727.273-.159.183-.238.445-.238.787v.77h1.344v1.1h-1.344v5.504h-1.482v-5.504h-1.01v-1.1h1.01v-.77c0-.728.197-1.289.592-1.684.399-.395.956-.592 1.672-.592m-10.289.127h1.482v1.301h-1.482v-1.301m-4.078 1.313h1.477v1.605h1.186v1.1h-1.186v3.648c0 .273.06.468.178.586.118.114.275.172.471.172.081 0 .161-.007.238-.02.077-.016.15-.036.219-.061l.158 1.088c-.126.069-.276.122-.451.158-.175.041-.356.061-.543.061-.545 0-.972-.159-1.281-.477-.309-.321-.465-.824-.465-1.508v-3.648h-1.01v-1.1h1.01v-1.605m4.078 1.605h1.482v6.604h-1.482v-6.604m8.07 10.732l9 12h-28l7-9 5 6.01 7-9.01"/></svg>
